X: 1
T: The Lark In The Mountain
R: jig
M: 6/8
L: 1/8
K: Gmaj
B3G2E|DEDD2A|BAB GED|EAA AGA|
B3G2E|DEDD2A|BAB dBG|AGA B2A:|
|:GBd dBA|GBd d2B|GBd dBG|ABA GED|
GBd dBA|GBd dBA|BAB GED|EAA AGA:|

